openframe-frontend-core/src/components/icons-v2/brand-logos/tactical-rmm-logo.svg

<svg width="24" height="24" viewBox="0 0 24 24" fill="none" xmlns="http://www.w3.org/2000/svg">
<path d="M10.9185 2L10.0222 3.7004L12.5481 4.34818L10.9185 2Z" fill="#888888"/>
<path d="M4.97037 8.39676L0 13.0931L4.4 16.17L8.63704 14.0648L22 22L10.9185 12.6073V10.664L4.97037 8.39676Z" fill="#888888"/>
<path d="M5.94815 15.4413V16.9798H13.6074L5.94815 15.4413Z" fill="#888888"/>
<path d="M18.3333 16.4939L15.4815 14.1457H18.9037L18.3333 16.4939Z" fill="#888888"/>
<path d="M10.0222 3.7004C5.58388 4.81167 3.41079 5.60282 0 7.26316V9.36842L4.72593 8.31579L15.8889 10.3401L18.4148 8.63968L16.5407 7.26316L16.2148 5.31984L10.0222 3.7004Z" fill="#888888"/>
</svg>

<svg xmlns="http://www.w3.org/2000/svg" width="24" height="24" fill="none" viewBox="0 0 24 24">
  <path fill="#888" d="m10.918 2-.896 1.7 2.526.648L10.918 2ZM4.97 8.397 0 13.093l4.4 3.077 4.237-2.105L22 22l-11.082-9.393v-1.943L4.97 8.397Z"/>
  <path fill="#888" d="M5.948 15.441v1.539h7.66l-7.66-1.539Zm12.385 1.053-2.851-2.348h3.422l-.57 2.348ZM10.022 3.7C5.584 4.812 3.411 5.603 0 7.263v2.105l4.726-1.052 11.163 2.024 2.526-1.7-1.874-1.377-.326-1.943-6.193-1.62Z"/>
</svg>
